!!!COM: Prokofiev, Sergey
!!!CDT: 1891/04/23/-1953/03/05/
!!!OTL@@RU: Mimoletnosti 
!!!OTL@EN:  Visions fugitives
!!!ONB: set of 20 pieces
!!!ODT: 1915///-1917///
!!!OPS: Op. 22
!!!ONM: No. 3
!!!OMD: Allegretto
**kern	**kern	**dynam
*staff2	*staff1	*staff1/2
*clefF4	*clefG2	*clefG2
*k[]	*k[]	*k[]
*M4/4	*M4/4	*M4/4
*MM116	*MM116	*MM116
=1-	=1-	=1-
*^	*	*
(4A/	1G	8r	.
.	.	(4c/ 4e/ 4a/	p
8A#/L	.	.	.
8B/J	.	4d/ 4f/ 4b/	.
4c/	.	.	.
.	.	4e/ 4g/ 4cc/	.
8c#/L	.	.	.
8d/J)	.	8f/) 8a/ 8dd/	.
=2	=2	=2	=2
4A/	1G	8r	.
.	.	4c/ 4e/ (4a/	.
8A#/L	.	.	.
8B/J	.	4d/ 4f/ 4b/	.
4c/	.	.	.
.	.	4e/ 4g/ 4cc/	.
8c#/L	.	.	.
8d/J	.	[8f/ [8a/ [8dd/	.
=3	=3	=3	=3
4e/	2.D\ 2.A\	8f/] 8a/] 8dd/]	.
.	.	4g\ 4b\ 4ee\	.
8e-/L	.	.	.
8d/J	.	4f/ 4a/ 4dd/	.
8d-/L	.	.	.
8c/J	.	4e/ 4g/ 4cc/	.
4B'/	4G\	.	.
.	.	[8d/ [8f/ [8b/	.
=4	=4	=4	=4
&(2A/&)	(8F\L	8d/] 8f/] 8b/]	.
.	8D\	4c/ 4e/ 4a/	.
.	8BB\	.	.
.	8GG\J	4c/ 4e/ 4a/	.
2r	4.EE\)	.	.
.	.	4d/ 4f/ 4a/	.
.	8DD\	8d/ 8f/ 8a/)	.
=5	=5	=5	=5
8r	2.D\	8r	.
(8A/L	.	(4c/ 4e/ 4a/	p
8A#/	.	.	.
8B/J	.	4d/ 4f/ 4b/	.
4c/	.	.	.
.	.	4e/ 4g/ 4cc/	.
8c#/L	4G\	.	.
8d/J)	.	8f/) 8a/ 8dd/	.
=6	=6	=6	=6
8r	2.D\	8r	.
8A/L	.	4c/ 4e/ (4a/	.
8A#/	.	.	.
8B/J	.	4d/ 4f/ 4b/	.
4c/	.	.	.
.	.	4e/ 4g/ 4cc/	.
8c#/L	4G\	.	.
8d/J	.	[8f/ [8a/ [8dd/	.
=7	=7	=7	=7
4e/	2.C\ 2.A\	8f/] 8a/] 8dd/]	.
.	.	4a\ 4cc\ 4ee\	.
4f/	.	.	.
.	.	4b\ 4dd\ 4ff\	.
8f#/L	.	.	.
8g/	.	4cc\ 4ee\ 4gg\	.
8f#/	4G\ 4B\	.	.
&(8fn/J&)	.	[8b\ [8dd\ [8ff\	.
=8	=8	=8	=8
(4e/	2.C\ 2.A\	8b\] 8dd\] 8ff\]	.
.	.	4a\ 4cc\ 4ee\	.
4f/	.	.	.
.	.	4b\ 4dd\ 4ff\	.
8f#/L	.	.	.
8g/	.	4cc\ 4ee\ 4gg\	.
8f#/	4A-\ 4c\	.	.
8fn/J)	.	8dd-\ 8ff\ 8aa-\)	.
=9	=9	=9	=9
4An/ (4e/	1GG 1D	8r	.
.	.	4cc\ 4ee\ (4aan\	p
8B-/ 8f/L	.	.	.
8Bn/ 8f#/J	.	4dd\ 4ff#\ 4bb\	.
4c/ 4g/	.	.	.
.	.	4ee\ 4gg\ 4ccc\	.
4d/ 4a/)	.	.	.
.	.	8ff#\ 8aa\ 8ddd\)	.
=10	=10	=10	=10
*	*	*clefG2	*clefG2
4A/ (4e/	1G	8r	.
.	.	4cc\ 4ee\ (4aa\	.
8B-/ 8fn/L	.	.	.
8Bn/ 8f#/J	.	4dd\ 4ff#\ 4bb\	.
4c/ 4g/	.	.	.
.	.	4ee\ 4gg\ 4ccc\	.
4d/ 4a/)	.	.	.
.	.	8ff#\ 8aa\ 8ddd\)	.
*v	*v	*	*
=11	=11	=11
4e\ 4g\ 4b\	(8eee\L	.
.	16ccc\L	.
.	16ddd\JJ	.
4E\ 4G\ 4B\	8ccc\L	.
.	8ee\J)	.
4d\ 4f\ 4a\	(8eee\L	.
.	16bb\L	.
.	16ccc\JJ	.
4D\ 4F\ 4A\	8bb\L	.
.	8ee\J)	.
=12	=12	=12
4c\ 4e\ 4g\	(8eee\L	.
.	16aa\L	.
.	16bb\JJ	.
4C\ 4E\ 4G\	8aa\L	.
.	8ee\J)	p
8e\L	4r	.
8e\J	.	.
4c\	8ee\L	.
.	8ee\J	.
*clefG2	*	*
=13	=13	=13
*^	*	*
8r	4G\ 4A\	4cc'\	<
4g/ 4a/	.	.	.
.	4c#\ 4d#\	4cc#'\	.
4g/ 4a/	.	.	.
.	4G\ 4A\	4dd#'\	.
4g/ 4a/	.	.	.
.	4c#\ 4d#\	4ee'\	.
[8g/ [8a/	.	.	.
=14	=14	=14	=14
8g/] 8a/]	4G\ 4A\	8eee'\	>
4g/ 4a/	.	8r	.
.	4c#\ 4d#\	([4gg^\	.
4g/ 4a/	.	.	.
.	4G\ 4A\	16gg\LL]	.
.	.	16aa\	.
4g/ 4a/	.	16gg\	.
.	.	16aa\JJ	.
.	4c#\ 4d#\	16gg\LK)	.
.	.	16r	.
[8g/ [8a/	.	([8eee^\J	.
=15	=15	=15	=15
8g/] 8a/]	4G\ 4A\	16eee\LL]	.
.	.	16aa\	.
4g/ 4a/	.	16gg\	.
.	.	16aa\JJ	.
.	4c#\ 4d#\	16gg\LK)	.
.	.	16r	.
4g/ 4a/	.	16eee^\L	.
.	.	(16ff#\JJ	.
.	4G\ 4A\	16gg\LL	.
.	.	16ccc\	.
4g/ 4a/	.	16aa\	.
.	.	16gg\JJ	.
.	4c#\ 4d#\	16ee\LL	.
.	.	16ff#\	.
[8g/ [8a/	.	16gg\	.
.	.	16ccc\JJ	.
*v	*v	*	*
=16	=16	=16
*M2/4	*M2/4	*M2/4
*^	*^	*
8g/] 8a/]	4G\ 4A\	16aa/LL	4r	.
.	.	16gg/	.	.
4g/ 4a/	.	16ee/	.	.
.	.	16ff#/JJ	.	.
.	4c#\ 4d#\	4gg/)	8cc#\L	.
8e/	.	.	8cc#\J	.
*v	*v	*	*	*
*	*v	*v	*
=17	=17	=17
*M4/4	*M4/4	*M4/4
*^	*	*
8e/	4G\ 4A\	4a'/	>
4g/ 4a/	.	.	.
.	4c#\ 4d#\	4b-'\	.
4g/ 4a/	.	.	.
.	4G\ 4A\	4cc'\	.
4g/ 4a/	.	.	.
.	4c#\ 4d#\	4cc#'\	.
[8g/ [8a/	.	.	.
=18	=18	=18	=18
8g/] 8a/]	4G\ 4A\	8ccc#'\	pp
4g/ 4a/	.	8r	.
.	4c#\ 4d#\	([4ee\	.
4g/ 4a/	.	.	.
.	4G\ 4A\	16ee\LL]	.
.	.	16ff#\	.
4g/ 4a/	.	16ee\	.
.	.	16ff#\JJ	.
.	4c#\ 4d#\	16ee\LK)	.
.	.	16r	.
[8g/ [8a/	.	(8ccc#\J	.
=19	=19	=19	=19
8g/] 8a/]	4G\ 4A\	16ccc\LL	.
.	.	16ff#\	.
4g/ 4a/	.	16ee\	.
.	.	&(16ff#\JJ&)	.
.	4c#\ 4d#\	16ee\LL)	.
.	.	16r	.
4g/ 4a/	.	16ccc\	.
.	.	(16dd#\JJ	.
.	4G\ 4A\	16ee\LL	.
.	.	16aa\	.
4g/ 4a/	.	16ff#\	.
.	.	16ee\JJ	.
.	4c#\ 4d#\	16cc#\LL	.
.	.	16dd#\	.
[8g/ [8a/	.	16ee\	.
.	.	16aa\JJ	.
*v	*v	*	*
=20	=20	=20
*M2/4	*M2/4	*M2/4
*^	*^	*
8g/] 8a/]	4G\ 4A\	16ff#/LL	4r	.
.	.	16ee/	.	.
4g/ 4a/	.	16cc#/	.	.
.	.	16dd#/JJ	.	.
.	4c#\ 4d#\	4ee/)	(8cc#\L	.
[8g/ [8a/	.	.	8cc#\J	.
*v	*v	*	*	*
*	*v	*v	*
=21	=21	=21
*M4/4	*M4/4	*M4/4
*^	*	*
8g/] 8a/]	4G\ 4A\	4.fn/	.
4g/ 4a/	.	.	.
.	4c#\ 4d#\	.	.
4g/ 4a/	.	8cc#\	.
.	4G\ 4A\	4e/)	.
4g/ 4a/	.	.	.
.	4c#\ 4d#\	(8cc#\L	.
[8g/ [8a/	.	8cc#\J	.
=22	=22	=22	=22
8g/] 8a/]	4G\ 4A\	4.f^/	.
4g/ 4a/	.	.	.
.	4c#\ 4d#\	.	.
4g/ 4a/	.	8cc#\	.
.	4G\ 4A\	4e/)	p
8g/ 8a/	.	.	.
*v	*v	*	*
*clefF4	*	*
*^	*	*
4r	8e\L	4r	.
.	8e\J	.	.
=23	=23	=23	=23
(4A/	2.G\	8r	.
.	.	(4c/ 4e/ 4a/	.
8A#/L	.	.	.
8B/J	.	4d/ 4f/ 4b/	.
4c/	.	.	.
.	.	4e/ 4g/ 4cc/	.
8c#/L	4D\	.	.
8d/J)	.	8f/) 8a/ 8dd/	.
=24	=24	=24	=24
4A/	2.G\	8r	.
.	.	4c/ 4e/ (4a/	.
8A#/L	.	.	.
8B/J	.	4d/ 4f/ 4b/	.
4c/	.	.	.
.	.	4e/ 4g/ 4cc/	.
8c#/L	4D\	.	.
&(8d/J&)	.	[8f/ [8a/ [8dd/	.
=25	=25	=25	=25
4e-/	1D- 1A-	8f/] 8a/] 8dd/]	.
.	.	4g-\ 4b-\ 4ee-\	.
4f/	.	.	.
.	.	4a-\ 4cc\ 4ff\	.
4g-/	.	.	.
.	.	4b-\ 4dd-\ 4gg-\	.
4a-/	.	.	.
.	.	[8cc\ [8ee-\ [8aa-\	.
=26	=26	=26	=26
4an/	1DDn 1AAn 1G	8cc\] 8ee-\] 8aa-\]	.
.	.	4cc\ 4een\ 4aan\	.
4b/	.	.	.
.	.	4dd\ 4ff\ 4bb\	.
*v	*v	*	*
*clefG2	*	*
*^	*	*
4cc/	.	.	.
.	.	4ee\ 4gg\ 4ccc\	.
&(4dd/&)	.	.	.
.	.	8ff\ 8aa\ 8ddd\	.
=27	=27	=27	=27
2b/	1g	1gg 1bb 1eee	.
4cc/	.	.	.
4b/	.	.	.
*v	*v	*	*
=28	=28	=28
1d &(1dd&)	1ff 1aa 1ddd)	p
==	==	==
*-	*-	*-
!!!ENC: Craig Stuart Sapp
!!!END: 2004/12/09/
